src/icons/svg/i-cursor.svg

<?xml version="1.0"?><svg xmlns="http://www.w3.org/2000/svg" width="40" height="40" viewBox="0 0 40 40"><path  d="m28.6 2.9q-7.2 0-7.2 5v9.2h2.9v2.9h-2.9v12.1q0 5 7.2 5h1.4v2.9h-1.4q-6.1 0-8.6-3.3-2.5 3.3-8.6 3.3h-1.4v-2.9h1.4q7.2 0 7.2-5v-12.1h-2.9v-2.9h2.9v-9.2q0-5-7.2-5h-1.4v-2.9h1.4q6.1 0 8.6 3.3 2.5-3.3 8.6-3.3h1.4v2.9h-1.4z"></path></svg>

<svg xmlns="http://www.w3.org/2000/svg" width="40" height="40" viewBox="0 0 40 40"><path d="M28.6 2.9q-7.2 0-7.2 5v9.2h2.9V20h-2.9v12.1q0 5 7.2 5H30V40h-1.4q-6.1 0-8.6-3.3-2.5 3.3-8.6 3.3H10v-2.9h1.4q7.2 0 7.2-5V20h-2.9v-2.9h2.9V7.9q0-5-7.2-5H10V0h1.4q6.1 0 8.6 3.3Q22.5 0 28.6 0H30v2.9h-1.4z"/></svg>
